X: 16062
T: Green Fields Of Glentown, The
R: reel
M: 4/4
K: Adorian
A z EA cAEA|G2DG B,DG,B,|A,A~A2 BAGE|edBA aged|
bg~g2 aged|BG~G2 EDB,G,|A,E~E2 (DE2)F|GEDB, A,B,CD||

